src/icons/svg/Calendar.svg

<!-- Generated by IcoMoon.io -->
<svg version="1.1" xmlns="http://www.w3.org/2000/svg" width="24" height="24" viewBox="0 0 24 24">
<title>calendar</title>
<path fill="#444" d="M19.5 16.502h-4.5v4.5h4.5v-4.5zM18 19.502h-1.5v-1.5h1.5v1.5zM19.5 10.502h-4.5v4.5h4.5v-4.5zM18 13.502h-1.5v-1.5h1.5v1.5zM21.75 1.501h-5.25v-1.501h-1.5v1.501h-7.5v-1.501h-1.5v1.501h-4.5c-0.828 0-1.5 0.67-1.5 1.5v19.5c0 0.829 0.672 1.5 1.5 1.5h19.5c0.83 0 1.5-0.671 1.5-1.5v-19.5c0-0.829 0.080-1.5-0.75-1.5zM21 21.752c0 0.414-0.337 0.75-0.75 0.75h-18c-0.414 0-0.75-0.336-0.75-0.75v-14.25h19.5v14.25zM21 6.002h-19.5v-2.25c0-0.414 0.336-0.75 0.75-0.75h3.75v1.5h1.5v-1.5h7.5v1.5h1.5v-1.5h3.75c0.413 0 0.75 0.336 0.75 0.75v2.25zM7.5 16.502h-4.5v4.5h4.5v-4.5zM6 19.502h-1.5v-1.5h1.5v1.5zM13.5 16.502h-4.5v4.5h4.5v-4.5zM12 19.502h-1.5v-1.5h1.5v1.5zM7.5 10.502h-4.5v4.5h4.5v-4.5zM6 13.502h-1.5v-1.5h1.5v1.5zM13.5 10.502h-4.5v4.5h4.5v-4.5zM12 13.502h-1.5v-1.5h1.5v1.5z"></path>
</svg>

<svg width="24" height="24" viewBox="0 0 24 24" fill="none" xmlns="http://www.w3.org/2000/svg">
<g clip-path="url(#clip0)">
<path d="M19.5 16.502H15V21.002H19.5V16.502ZM18 19.502H16.5V18.002H18V19.502ZM19.5 10.502H15V15.002H19.5V10.502ZM18 13.502H16.5V12.002H18V13.502ZM21.75 1.501H16.5V0H15V1.501H7.5V0H6V1.501H1.5C0.672 1.501 0 2.171 0 3.001V22.501C0 23.33 0.672 24.001 1.5 24.001H21C21.83 24.001 22.5 23.33 22.5 22.501V3.001C22.5 2.172 22.58 1.501 21.75 1.501V1.501ZM21 21.752C21 22.166 20.663 22.502 20.25 22.502H2.25C1.836 22.502 1.5 22.166 1.5 21.752V7.502H21V21.752ZM21 6.002H1.5V3.752C1.5 3.338 1.836 3.002 2.25 3.002H6V4.502H7.5V3.002H15V4.502H16.5V3.002H20.25C20.663 3.002 21 3.338 21 3.752V6.002ZM7.5 16.502H3V21.002H7.5V16.502ZM6 19.502H4.5V18.002H6V19.502ZM13.5 16.502H9V21.002H13.5V16.502ZM12 19.502H10.5V18.002H12V19.502ZM7.5 10.502H3V15.002H7.5V10.502ZM6 13.502H4.5V12.002H6V13.502ZM13.5 10.502H9V15.002H13.5V10.502ZM12 13.502H10.5V12.002H12V13.502Z" fill="#1C2125"/>
</g>
<defs>
<clipPath id="clip0">
<rect width="24" height="24" fill="white"/>
</clipPath>
</defs>
</svg>
